app/dist/common/images/mckesson.svg

<svg height="18" width="18" xmlns="http://www.w3.org/2000/svg"><path d="m0 0h18v18h-18z" fill="#084497"/><path d="m4 6v6h1.23v-3.991c0-.181-.014-.603-.06-1.275.069.422.16.77.22 1.05l.919 4.216h1.261l.941-4.284c.066-.3.16-.62.228-.983-.038.431-.061.845-.061 1.25v4.017h1.322v-6h-2.112l-.72 3.577c-.049.236-.122.595-.16 1.094a5.27 5.27 0 0 0 -.145-1.06l-.965-3.611zm9.962.197c-.4-.147-.77-.22-1.109-.22-1.423 0-2.27.857-2.27 2.222 0 1.315.877 2.207 2.163 2.207.484 0 .908-.066 1.254-.198l-.03-1.103a1.481 1.481 0 0 1 -.824.245c-.716 0-1.162-.465-1.162-1.16 0-.71.423-1.168 1.1-1.168.254 0 .516.074.785.229z" fill="#fff"/><path d="m11 11h3v1h-3z" fill="#ff8051"/></svg>

<!-- by TradingView --><svg width="18" height="18" xmlns="http://www.w3.org/2000/svg"><path fill="#084497" d="M0 0h18v18H0z"/><path d="M4 6v6h1.23V8.009c0-.181-.014-.603-.06-1.275.069.422.16.77.22 1.05L6.309 12H7.57l.941-4.284c.066-.3.16-.62.228-.983-.038.431-.061.845-.061 1.25V12H10V6H7.888l-.72 3.577c-.049.236-.122.595-.16 1.094a5.27 5.27 0 00-.145-1.06L5.898 6H4zM13.962 6.197c-.4-.147-.77-.22-1.109-.22-1.423 0-2.27.857-2.27 2.222 0 1.315.877 2.207 2.163 2.207.484 0 .908-.066 1.254-.198l-.03-1.103a1.481 1.481 0 01-.824.245c-.716 0-1.162-.465-1.162-1.16 0-.71.423-1.168 1.1-1.168.254 0 .516.074.785.229l.093-1.054z" fill="#fff"/><path d="M11 11h3v1h-3v-1z" fill="#FF8051"/></svg>
